X: 36
T:Fair Jenny's Jig
M:6/8
L:1/8
Q:140
C:Peter Barnes
R:jig
Z:1997 by John Chambers <jc@eddie.mit.edu> http://eddie.mit.edu/~jc/music
Z:bc/
K:D
A |"D"f3 f fed|"A7"ecA ecA|"G"Bcd "A7"ecA|"G"Bcd "A7"eag |!
"D"f3 f fed|"A7"ecA ecA|"G"Bcd "A7"ecA|ABc "D"d2:|!
|:A |"G"B3 B=cB|GBB B=cB|"D"ADD dDD|^cDD =cDD |!
"G"B3 B=cB|GBB B=cB|"A7"A3A ABc|"D"d4:|!
